icons/src/svg/mileage_inactive.svg

<svg width="32" height="32" viewBox="0 0 32 32" fill="none" xmlns="http://www.w3.org/2000/svg">
<path d="M28.6125 24.0852C29.5365 22.1701 29.999 20.0882 30 18.0063V17.9938C29.9985 14.4491 28.6591 10.905 25.9818 8.18358C25.9586 8.15443 25.9334 8.12628 25.9064 8.09929C25.8796 8.07245 25.8516 8.04745 25.8226 8.02429C23.1018 5.34439 19.5572 4.00298 16.0116 4.00007L16 4L15.9884 4.00007C13.9082 4.00177 11.8282 4.46425 9.91479 5.38748L11.4288 6.90146C12.5761 6.42944 13.7818 6.1428 15 6.04154V8C15 8.55229 15.4477 9 16 9C16.5523 9 17 8.55229 17 8V6.04155C19.4198 6.24269 21.7902 7.17528 23.7522 8.83933L22.3695 10.222C21.979 10.6125 21.979 11.2457 22.3695 11.6362C22.7601 12.0267 23.3932 12.0267 23.7837 11.6362L25.1659 10.254C26.8266 12.2147 27.7575 14.5827 27.9585 17H26C25.4477 17 25 17.4477 25 18C25 18.5523 25.4477 19 26 19H27.9585C27.8573 20.2183 27.5707 21.424 27.0987 22.5714L28.6125 24.0852Z" fill="#0D0F13"/>
<path d="M23 18.4727V18C23 17.4477 22.5523 17 22 17H21.5273L23 18.4727Z" fill="#0D0F13"/>
<path d="M13.042 17H10C9.44772 17 9 17.4477 9 18V22C9 22.5523 9.44772 23 10 23H19.042L17.042 21H11V19H15.042L13.042 17Z" fill="#0D0F13"/>
<path d="M6.59162 10.5492C5.08253 12.45 4.23248 14.7026 4.04149 16.9996H6C6.55228 16.9996 7 17.4473 7 17.9996C7 18.5519 6.55228 18.9996 6 18.9996H4.04144C4.25105 21.5224 5.25565 23.9914 7.05523 25.9996H22.0421L24.0421 27.9996H7.04524C6.5061 27.9996 5.96761 27.781 5.58499 27.3558C0.947841 22.2021 0.809254 14.4361 5.16933 9.12695L6.59162 10.5492Z" fill="#0D0F13"/>
<path fill-rule="evenodd" clip-rule="evenodd" d="M2.29289 2.29289C2.68342 1.90237 3.31658 1.90237 3.70711 2.29289L29.7071 28.2929C30.0976 28.6834 30.0976 29.3166 29.7071 29.7071C29.3166 30.0976 28.6834 30.0976 28.2929 29.7071L2.29289 3.70711C1.90237 3.31658 1.90237 2.68342 2.29289 2.29289Z" fill="#0D0F13"/>
</svg>

<?xml version="1.0" encoding="utf-8"?>
<!-- Generator: Adobe Illustrator 26.0.1, SVG Export Plug-In . SVG Version: 6.00 Build 0)  -->
<svg version="1.1" id="Layer_1" xmlns="http://www.w3.org/2000/svg" xmlns:xlink="http://www.w3.org/1999/xlink" x="0px" y="0px"
	 viewBox="0 0 32 32" style="enable-background:new 0 0 32 32;" xml:space="preserve">
<style type="text/css">
	.st0{fill:#0D0F13;}
</style>
<path class="st0" d="M28.6,24.1c0.9-1.9,1.4-4,1.4-6.1v0v0c0-3.5-1.3-7.1-4-9.8c0,0,0-0.1-0.1-0.1c0,0-0.1-0.1-0.1-0.1
	c-2.7-2.7-6.3-4-9.8-4l0,0l0,0c-2.1,0-4.2,0.5-6.1,1.4l1.5,1.5C12.6,6.4,13.8,6.1,15,6v2c0,0.6,0.4,1,1,1c0.6,0,1-0.4,1-1V6
	c2.4,0.2,4.8,1.1,6.8,2.8l-1.4,1.4c-0.4,0.4-0.4,1,0,1.4c0.4,0.4,1,0.4,1.4,0l1.4-1.4c1.7,2,2.6,4.3,2.8,6.7h-2c-0.6,0-1,0.4-1,1
	s0.4,1,1,1h2c-0.1,1.2-0.4,2.4-0.9,3.6L28.6,24.1z M23,18.5V18c0-0.6-0.4-1-1-1h-0.5L23,18.5z M13,17h-3c-0.6,0-1,0.4-1,1v4
	c0,0.6,0.4,1,1,1h9l-2-2h-6v-2h4L13,17z M6.6,10.5C5.1,12.5,4.2,14.7,4,17h2c0.6,0,1,0.4,1,1s-0.4,1-1,1H4c0.2,2.5,1.2,5,3,7h15l2,2
	H7c-0.5,0-1.1-0.2-1.5-0.6C0.9,22.2,0.8,14.4,5.2,9.1L6.6,10.5z M2.3,2.3c0.4-0.4,1-0.4,1.4,0l26,26c0.4,0.4,0.4,1,0,1.4
	c-0.4,0.4-1,0.4-1.4,0l-26-26C1.9,3.3,1.9,2.7,2.3,2.3z"/>
</svg>
